X: 128
T: Neds Frolick
B: 204 Favourite Country Dances
N: Published by Straight & Skillern, London ca.1775
F: http://imslp.org/wiki/204_Favourite_Country_Dances_(Various) p.64 #128
Z: 2014 John Chambers <jc:trillian.mit.edu>
M: 9/8
L: 1/8
K: G
% - - - - - - - - - - - - - - - - - - - - - - - - -
|:\
d2D ed^c d2D | e2c A2a {g}f3 |\
gba gfe f2^c | eba gfe d3 :|
|:\
b2g fed g2B | edc BAG [A3F3D3] |\
BGB cAc def | gec AdB G3 :|
% - - - - - - - - - - - - - - - - - - - - - - - - -
%%begintext align
%% Hands across and Back again cross over 1
%% Cu. Right and Left at top
%%endtext

%%sep 1 1 500
%%sep 1 1 500
